assets/icons/icon_360_degree.svg

<svg width="30" height="30" viewBox="0 0 30 30" fill="none" xmlns="http://www.w3.org/2000/svg">
<path d="M12.9843 22.779C12.9774 22.8499 12.9566 22.9186 12.923 22.9811C12.8893 23.0436 12.8437 23.0986 12.7886 23.1429C12.7336 23.1871 12.6703 23.2196 12.6027 23.2385C12.535 23.2574 12.4642 23.2623 12.3946 23.2529C7.42126 22.5477 4 20.1447 4 17.3016C4 13.8493 8.97334 11.1472 15.3263 11.1472C21.6793 11.1472 26.6471 13.8493 26.6471 17.3016C26.6471 20.1221 23.4372 22.4293 18.6085 23.2021C18.4694 23.2156 18.3303 23.1756 18.219 23.0898C18.1076 23.0041 18.0322 22.8791 18.0077 22.7395L17.9799 22.5364C17.969 22.3988 18.0084 22.2619 18.0904 22.1517C18.1724 22.0415 18.2914 21.9657 18.4249 21.9385C22.4915 21.2785 25.3898 19.3718 25.3898 17.3016C25.3898 14.6559 20.7836 12.4221 15.3263 12.4221C9.86899 12.4221 5.25724 14.6785 5.25724 17.3016C5.25724 19.417 8.35585 21.3857 12.5504 21.9893C12.681 22.0121 12.7993 22.0815 12.8839 22.1849C12.9686 22.2883 13.014 22.419 13.0121 22.5534L12.9843 22.779Z" fill="white"/>
<path d="M10.709 18.7173C10.643 18.7683 10.5876 18.8319 10.546 18.9047C10.5044 18.9774 10.4773 19.0578 10.4665 19.1411C10.4556 19.2245 10.4611 19.3092 10.4827 19.3904C10.5043 19.4716 10.5415 19.5477 10.5922 19.6143L12.1276 21.9327C12.18 22.0028 12.2177 22.0831 12.2383 22.1685C12.2589 22.254 12.262 22.3428 12.2474 22.4295C12.2328 22.5162 12.2008 22.599 12.1534 22.6727C12.106 22.7463 12.0442 22.8094 11.9718 22.8578L9.8245 24.8322C9.75546 24.8781 9.69602 24.9374 9.64957 25.0066C9.60312 25.0758 9.57057 25.1537 9.55379 25.2356C9.51988 25.4012 9.55222 25.5736 9.6437 25.715C9.73517 25.8564 9.87829 25.9551 10.0416 25.9895C10.2048 26.0239 10.3749 25.9911 10.5143 25.8984L13.7909 23.1794C13.8631 23.1314 13.9248 23.0689 13.9722 22.9957C14.0195 22.9226 14.0515 22.8403 14.0661 22.754C14.0807 22.6677 14.0777 22.5794 14.0571 22.4943C14.0366 22.4093 13.999 22.3295 13.9467 22.2599L11.588 18.8753C11.5387 18.8081 11.4767 18.7516 11.4056 18.7089C11.3346 18.6662 11.2559 18.6383 11.1741 18.6268C11.0923 18.6152 11.0091 18.6203 10.9292 18.6416C10.8494 18.663 10.7745 18.7002 10.709 18.7512" fill="white"/>
<path d="M9.99138 8.40555C10.1095 8.40862 10.224 8.44796 10.3196 8.51837C10.5243 8.68614 10.7796 8.77772 11.0428 8.77786C11.1687 8.77645 11.293 8.74944 11.4083 8.6984C11.5237 8.64737 11.6278 8.57337 11.7145 8.48077C11.8011 8.38818 11.8685 8.27889 11.9127 8.15938C11.9569 8.03986 11.977 7.91257 11.9718 7.78503C11.9798 7.66932 11.9635 7.55321 11.9241 7.44431C11.8847 7.33541 11.8231 7.23617 11.7433 7.15309C11.6635 7.07001 11.5672 7.00497 11.4609 6.96222C11.3546 6.91948 11.2405 6.89999 11.1262 6.90503C10.7925 6.90503 10.6701 7.03478 10.3919 7.03478C10.34 7.03428 10.2887 7.02278 10.2414 7.00102C10.1941 6.97926 10.1518 6.94772 10.1173 6.90841C10.0827 6.86911 10.0566 6.82292 10.0407 6.77279C10.0248 6.72267 10.0193 6.66972 10.0248 6.61734C10.0328 6.47859 10.0948 6.34874 10.1972 6.25632L11.3766 4.9476H9.86899C9.81085 4.9493 9.753 4.93866 9.69915 4.91636C9.64531 4.89406 9.59665 4.86058 9.55632 4.81809C9.51598 4.77559 9.48485 4.72502 9.46493 4.6696C9.44501 4.61419 9.43674 4.55516 9.44064 4.49632C9.43979 4.43981 9.45042 4.38374 9.47187 4.33158C9.49331 4.27942 9.52511 4.2323 9.5653 4.19314C9.60548 4.15399 9.65317 4.12364 9.70542 4.10398C9.75767 4.08432 9.81335 4.07578 9.86899 4.07888H12.2055C12.2698 4.07156 12.3349 4.07912 12.396 4.101C12.457 4.12288 12.5124 4.1585 12.5579 4.20519C12.6034 4.25189 12.6379 4.30843 12.6587 4.37058C12.6796 4.43273 12.6863 4.49886 12.6783 4.56401C12.6662 4.7073 12.6005 4.84048 12.4947 4.93632L11.4711 6.06452C11.8756 6.09492 12.252 6.28519 12.5194 6.59434C12.7869 6.90349 12.9238 7.30678 12.9008 7.71734C12.9008 8.84555 12.0942 9.57324 10.8703 9.57324C10.5121 9.57385 10.1591 9.48677 9.84117 9.31939C9.76039 9.28394 9.69129 9.2258 9.64201 9.15184C9.59273 9.07789 9.56533 8.99118 9.56302 8.90196C9.56121 8.77739 9.60619 8.65679 9.68884 8.5646C9.77148 8.47242 9.8856 8.41556 10.0081 8.40555" fill="white"/>
<path d="M15.4153 8.72153C15.5334 8.71867 15.6498 8.69185 15.7575 8.64264C15.8652 8.59343 15.9621 8.52284 16.0425 8.43503C16.1229 8.34722 16.1851 8.24397 16.2255 8.13138C16.2658 8.01878 16.2836 7.89913 16.2776 7.77948C16.2914 7.65632 16.2794 7.53158 16.2424 7.41345C16.2054 7.29532 16.1441 7.18645 16.0627 7.09397C15.9813 7.0015 15.8816 6.92751 15.77 6.87685C15.6584 6.82619 15.5376 6.8 15.4153 6.8C15.2931 6.8 15.1722 6.82619 15.0606 6.87685C14.9491 6.92751 14.8493 7.0015 14.7679 7.09397C14.6865 7.18645 14.6253 7.29532 14.5883 7.41345C14.5512 7.53158 14.5392 7.65632 14.553 7.77948C14.5471 7.89913 14.5648 8.01878 14.6052 8.13138C14.6455 8.24397 14.7078 8.34722 14.7881 8.43503C14.8685 8.52284 14.9654 8.59343 15.0731 8.64264C15.1809 8.69185 15.2972 8.71867 15.4153 8.72153ZM15.4153 9.57333C14.3027 9.57333 13.624 8.54666 13.624 7.45794C13.624 6.5723 14.0023 4.63743 15.9271 4.07333C15.9862 4.0654 16.046 4.0654 16.1051 4.07333C16.1641 4.0648 16.2242 4.06974 16.2811 4.08776C16.338 4.10579 16.3902 4.13646 16.4339 4.17754C16.4776 4.21861 16.5117 4.26905 16.5338 4.32519C16.5558 4.38133 16.5652 4.44175 16.5613 4.50204C16.5573 4.61744 16.515 4.72809 16.4413 4.81611C16.3676 4.90414 16.2668 4.96441 16.1552 4.98717C15.8264 5.08306 15.5226 5.25168 15.2658 5.4809C15.0089 5.71013 14.8054 5.99425 14.6699 6.31281C14.9096 6.09847 15.2181 5.98013 15.5377 5.97999C15.9879 6.01256 16.4096 6.21576 16.7188 6.54918C17.028 6.88259 17.2022 7.32181 17.2066 7.77948C17.2066 8.016 17.1605 8.25019 17.0709 8.46857C16.9813 8.68695 16.85 8.88521 16.6845 9.05193C16.5191 9.21865 16.3228 9.35055 16.1068 9.44003C15.8909 9.52951 15.6597 9.57482 15.4264 9.57333" fill="white"/>
<path d="M19.8325 8.64256C20.4666 8.64256 20.8783 8.03333 20.8783 6.78667C20.8783 5.54 20.4666 4.93077 19.8325 4.93077C19.1983 4.93077 18.7866 5.54 18.7866 6.78667C18.7866 8.03333 19.1983 8.64256 19.8325 8.64256ZM19.8325 9.57333C18.5196 9.57333 17.7964 8.44513 17.7964 6.78667C17.7964 5.12821 18.5196 4 19.8325 4C21.1453 4 21.8741 5.12821 21.8741 6.78667C21.8741 8.44513 21.1453 9.57333 19.8325 9.57333Z" fill="white"/>
<path d="M23.8043 6.32416C24.1103 6.32416 24.2827 5.97442 24.2827 5.51185C24.2827 5.04929 24.1159 4.69955 23.8043 4.69955C23.4928 4.69955 23.3148 5.04365 23.3148 5.51185C23.3148 5.98006 23.4872 6.32416 23.8043 6.32416ZM23.8043 7.01237C23.6246 6.99817 23.4495 6.94796 23.289 6.86465C23.1286 6.78135 22.986 6.66659 22.8696 6.52704C22.7532 6.38749 22.6652 6.2259 22.6108 6.05164C22.5564 5.87739 22.5367 5.69392 22.5526 5.51185C22.5178 5.32595 22.5239 5.13455 22.5705 4.9513C22.617 4.76805 22.7028 4.59747 22.8218 4.45172C22.9408 4.30597 23.0901 4.18865 23.259 4.10812C23.4278 4.02759 23.6122 3.98584 23.7988 3.98584C23.9854 3.98584 24.1697 4.02759 24.3386 4.10812C24.5074 4.18865 24.6567 4.30597 24.7757 4.45172C24.8947 4.59747 24.9805 4.76805 25.0271 4.9513C25.0736 5.13455 25.0797 5.32595 25.0449 5.51185C25.0609 5.69304 25.0415 5.87565 24.9878 6.04922C24.9341 6.22279 24.8471 6.3839 24.7319 6.52331C24.6166 6.66271 24.4753 6.77768 24.3162 6.8616C24.157 6.94552 23.9831 6.99676 23.8043 7.01237Z" fill="white"/>
</svg>

<svg xmlns="http://www.w3.org/2000/svg" width="30" height="30" fill="none" viewBox="0 0 30 30"><path fill="#fff" d="M12.984 22.779a.54.54 0 0 1-.195.364.52.52 0 0 1-.394.11C7.42 22.548 4 20.145 4 17.302c0-3.453 4.973-6.155 11.326-6.155s11.321 2.702 11.321 6.155c0 2.82-3.21 5.127-8.038 5.9a.55.55 0 0 1-.39-.112.56.56 0 0 1-.211-.35l-.028-.204a.57.57 0 0 1 .11-.384.56.56 0 0 1 .335-.213c4.066-.66 6.965-2.567 6.965-4.637 0-2.646-4.606-4.88-10.064-4.88-5.457 0-10.069 2.256-10.069 4.88 0 2.115 3.099 4.084 7.293 4.687.131.023.25.092.334.196.085.103.13.234.128.368z"/><path fill="#fff" d="M10.709 18.717a.64.64 0 0 0-.242.424.65.65 0 0 0 .125.473l1.536 2.319a.65.65 0 0 1-.156.925l-2.147 1.974a.63.63 0 0 0-.271.404.65.65 0 0 0 .09.479.622.622 0 0 0 .87.183l3.277-2.719a.64.64 0 0 0 .275-.425.65.65 0 0 0-.12-.494l-2.358-3.385a.63.63 0 0 0-.414-.248.62.62 0 0 0-.465.124M9.991 8.406a.6.6 0 0 1 .329.112c.204.168.46.26.723.26a.93.93 0 0 0 .672-.297.96.96 0 0 0 .257-.696.83.83 0 0 0-.229-.632.81.81 0 0 0-.617-.248c-.333 0-.456.13-.734.13a.37.37 0 0 1-.275-.127.4.4 0 0 1-.076-.135q-.024-.076-.016-.156a.53.53 0 0 1 .172-.36l1.18-1.31H9.869a.41.41 0 0 1-.313-.129.42.42 0 0 1-.115-.322.42.42 0 0 1 .264-.392.4.4 0 0 1 .164-.025h2.337a.42.42 0 0 1 .352.126.44.44 0 0 1 .12.359.57.57 0 0 1-.183.372L11.47 6.065c.405.03.781.22 1.048.53.268.308.405.712.382 1.122 0 1.129-.807 1.856-2.03 1.856a2.2 2.2 0 0 1-1.03-.254.46.46 0 0 1-.278-.417.5.5 0 0 1 .126-.337.48.48 0 0 1 .32-.16M15.415 8.722a.87.87 0 0 0 .628-.287.9.9 0 0 0 .235-.656.9.9 0 0 0-.215-.685.87.87 0 0 0-.648-.294.86.86 0 0 0-.647.294.88.88 0 0 0-.215.685.9.9 0 0 0 .235.656.89.89 0 0 0 .627.287m0 .851c-1.112 0-1.791-1.026-1.791-2.115 0-.886.378-2.82 2.303-3.385a.7.7 0 0 1 .178 0 .4.4 0 0 1 .329.105.4.4 0 0 1 .127.324.52.52 0 0 1-.406.485 2.3 2.3 0 0 0-.89.494c-.256.23-.46.513-.595.832.24-.215.548-.333.868-.333.45.033.872.236 1.18.57.31.333.484.772.489 1.23a1.82 1.82 0 0 1-.523 1.272 1.77 1.77 0 0 1-1.258.521M19.833 8.643c.634 0 1.045-.61 1.045-1.856 0-1.247-.411-1.856-1.046-1.856-.634 0-1.045.609-1.045 1.856 0 1.246.411 1.856 1.046 1.856m0 .93c-1.313 0-2.037-1.128-2.037-2.786S18.52 4 19.833 4s2.041 1.128 2.041 2.787c0 1.658-.729 2.786-2.041 2.786M23.804 6.324c.306 0 .479-.35.479-.812s-.167-.812-.479-.812-.49.344-.49.812.173.812.49.812m0 .688a1.35 1.35 0 0 1-.934-.485 1.4 1.4 0 0 1-.317-1.015 1.3 1.3 0 0 1 .269-1.06 1.27 1.27 0 0 1 .977-.466 1.25 1.25 0 0 1 .977.466 1.3 1.3 0 0 1 .269 1.06 1.4 1.4 0 0 1-.313 1.011 1.37 1.37 0 0 1-.928.49"/></svg>
